X:99
T:Chankes  M a la ale Moonnany
Z:id:hn-mazurka-15
M:3/8
K:A
GBd|e2 fd dB|1 G3 Bd:|
<end>
<st


*****************************


14200 1 1.2403542 

<start>
W:C|a Bu comle's & (3elecks:
BG|e2 A2|B2 BA|G2 AG|G2 A/G/F/E/|F/G/F/G/ Fd|
de f2|
(3e/c/^d/c/ ed|


*****************************


14300 1 1.3934861 

<start>
